Suru++-Ubuntu/apps/scalable/four-in-a-row.svg

<svg width="256" height="256" style="clip-rule:evenodd;fill-rule:evenodd;image-rendering:optimizeQuality;shape-rendering:geometricPrecision;text-rendering:geometricPrecision" version="1.1" viewBox="0 0 256 256" xmlns="http://www.w3.org/2000/svg" xmlns:xlink="http://www.w3.org/1999/xlink">
 <defs>
  <style type="text/css"><![CDATA[
    .fil5 {fill:none}
    .fil1 {fill:#196FBA}
    .fil0 {fill:#25B2EE}
    .fil4 {fill:#793C7C}
    .fil3 {fill:#8C508C}
    .fil2 {fill:white}
   ]]></style>
  <filter id="filter939" x="-.02" y="-.03" width="1.046" height="1.05" style="color-interpolation-filters:sRGB">
   <feGaussianBlur stdDeviation="2.32"/>
  </filter>
  <filter id="filter4569" x="-.01" y="-.01" width="1.023" height="1.025" style="color-interpolation-filters:sRGB">
   <feGaussianBlur stdDeviation="1.16"/>
  </filter>
  <linearGradient id="linearGradient1108" x1="296" x2="296" y1="-212" y2="236" gradientUnits="userSpaceOnUse">
   <stop style="stop-color:#ffffff" offset="0"/>
   <stop style="stop-color:#ffffff;stop-opacity:.09803922" offset=".125"/>
   <stop style="stop-color:#000000;stop-opacity:.09803922" offset=".925"/>
   <stop style="stop-color:#000000;stop-opacity:.49803922" offset="1"/>
  </linearGradient>
  <clipPath id="clipPath1082-3-361">
   <path d="M 361.9375,-212 C 507.2348,-212 528,-191.28677 528,-46.125 V 70.125 C 528,215.28618 507.2348,236 361.9375,236 H 214.0625 C 68.7652,236 48,215.28618 48,70.125 V -46.125 C 48,-191.28677 68.7652,-212 214.0625,-212 Z" style="fill:#8c59d9"/>
  </clipPath>
 </defs>
 <path transform="matrix(1.019368,0,0,1.019368,-7.2181772e-8,8.3098661)" d="m162.53675 5.5680001c72.64865 0 83.03125 10.356615 83.03125 82.937505v58.125005c0 72.58059-10.3826 82.9375-83.03125 82.9375h-73.937496c-72.648654 0-83.031254-10.35691-83.031254-82.9375v-58.125005c0-72.58089 10.3826-82.937505 83.031254-82.937505z" style="filter:url(#filter939);opacity:.2"/>
 <path d="m165.68477 11.946967c74.05571 0 84.6394 10.557203 84.6394 84.543835v59.250778c0 73.98633-10.58369 84.54383-84.6394 84.54383h-75.369521c-74.055717 0-84.639408-10.5575-84.639408-84.54383v-59.250778c0-73.986632 10.583691-84.543835 84.639408-84.543835z" style="fill:none;opacity:.1;stroke-linecap:round;stroke-linejoin:round;stroke-width:4.0774717;stroke:#000000"/>
 <path transform="matrix(1.019368,0,0,1.019368,-7.2181772e-8,8.3098661)" d="m162.53675 3.5680001c72.64865 0 83.03125 10.356615 83.03125 82.937505v58.125005c0 72.58059-10.3826 82.9375-83.03125 82.9375h-73.937496c-72.648654 0-83.031254-10.35691-83.031254-82.9375v-58.125005c0-72.58089 10.3826-82.937505 83.031254-82.937505z" style="filter:url(#filter4569);opacity:.1"/>
 <path d="m165.68476 11.946967c74.05571 0 84.6394 10.557203 84.6394 84.543835v59.250778c0 73.98633-10.58369 84.54383-84.6394 84.54383h-75.369522c-74.055712 0-84.639403-10.5575-84.639403-84.54383v-59.250778c0-73.986632 10.583691-84.543835 84.639403-84.543835z" style="fill:#25b2ee"/>
 <path transform="matrix(.50968403 0 0 .50968403 -18.788999 120)" d="M 361.9375,-212 C 507.2348,-212 528,-191.28677 528,-46.125 V 70.125 C 528,215.28618 507.2348,236 361.9375,236 H 214.0625 C 68.7652,236 48,215.28618 48,70.125 V -46.125 C 48,-191.28677 68.7652,-212 214.0625,-212 Z" clip-path="url(#clipPath1082-3-361)" style="fill:none;opacity:.4;stroke-linecap:round;stroke-linejoin:round;stroke-width:8;stroke:url(#linearGradient1108)"/>
 <path d="m128 11.946967v228.33844h37.68476c74.05571 0 84.6394-10.5575 84.6394-84.54383v-59.250778c0-73.986632-10.58369-84.543835-84.6394-84.543835z" style="fill:#ffffff;opacity:.1"/>
 <path d="m90.315238 240.28541c-74.055712 0-84.639403-10.5572-84.639403-84.54383v-29.62537h244.64832v29.62537c0 73.98663-10.58369 84.54383-84.6394 84.54383z" style="fill:#ffffff;opacity:.1"/>
 <g transform="translate(-4.6808417,1.7521852)">
  <path d="m68.501734 197.55386a17.910444 17.910444 0 0 1-17.889423 17.91044 17.910444 17.910444 0 0 1-17.931416-17.86839 17.910444 17.910444 0 0 1 17.847329-17.95238 17.910444 17.910444 0 0 1 17.973312 17.82625" style="fill:#ffcc00"/>
  <path d="m123.2281 197.55386a17.910444 17.910444 0 0 1-17.88942 17.91044 17.910444 17.910444 0 0 1-17.931417-17.86839 17.910444 17.910444 0 0 1 17.847327-17.95238 17.910444 17.910444 0 0 1 17.97331 17.82625" style="fill:#f03916"/>
  <path d="m177.95447 197.55386a17.910444 17.910444 0 0 1-17.88943 17.91044 17.910444 17.910444 0 0 1-17.93141-17.86839 17.910444 17.910444 0 0 1 17.84733-17.95238 17.910444 17.910444 0 0 1 17.97331 17.82625" style="fill:#f03916"/>
  <path d="m232.68083 197.55386a17.910444 17.910444 0 0 1-17.88942 17.91044 17.910444 17.910444 0 0 1-17.93142-17.86839 17.910444 17.910444 0 0 1 17.84733-17.95238 17.910444 17.910444 0 0 1 17.97331 17.82625" style="fill:#ffcc00"/>
  <path d="m68.50173 148.31706a17.910444 17.910444 0 0 1-17.889422 17.91043 17.910444 17.910444 0 0 1-17.931417-17.86838 17.910444 17.910444 0 0 1 17.847329-17.95238 17.910444 17.910444 0 0 1 17.973313 17.82624" style="fill:#f03916"/>
  <path d="m123.22812 148.31706a17.910444 17.910444 0 0 1-17.88943 17.91043 17.910444 17.910444 0 0 1-17.931412-17.86838 17.910444 17.910444 0 0 1 17.847332-17.95238 17.910444 17.910444 0 0 1 17.97331 17.82624" style="fill:#ffcc00"/>
  <path d="m177.95447 148.31706a17.910444 17.910444 0 0 1-17.88943 17.91043 17.910444 17.910444 0 0 1-17.93141-17.86838 17.910444 17.910444 0 0 1 17.84733-17.95238 17.910444 17.910444 0 0 1 17.97331 17.82624" style="fill:#f03916"/>
  <path d="m232.68085 148.31706a17.910444 17.910444 0 0 1-17.88943 17.91043 17.910444 17.910444 0 0 1-17.93141-17.86838 17.910444 17.910444 0 0 1 17.84733-17.95238 17.910444 17.910444 0 0 1 17.97331 17.82624" style="fill:#ffcc00"/>
  <path d="m68.501734 100.41098a17.910444 17.910444 0 0 1-17.889423 17.91043 17.910444 17.910444 0 0 1-17.931416-17.86839 17.910444 17.910444 0 0 1 17.847329-17.952373 17.910444 17.910444 0 0 1 17.973312 17.826243" style="fill:#ffffff"/>
  <path d="m123.22812 100.41098a17.910444 17.910444 0 0 1-17.88943 17.91043 17.910444 17.910444 0 0 1-17.931412-17.86839 17.910444 17.910444 0 0 1 17.847332-17.952373 17.910444 17.910444 0 0 1 17.97331 17.826243" style="fill:#f03916"/>
  <path d="m177.95445 100.41098a17.910444 17.910444 0 0 1-17.88942 17.91043 17.910444 17.910444 0 0 1-17.93142-17.86839 17.910444 17.910444 0 0 1 17.84733-17.952373 17.910444 17.910444 0 0 1 17.97331 17.826243" style="fill:#ffcc00"/>
  <path d="m232.68081 100.41098a17.910444 17.910444 0 0 1-17.88942 17.91043 17.910444 17.910444 0 0 1-17.93141-17.86839 17.910444 17.910444 0 0 1 17.84732-17.952373 17.910444 17.910444 0 0 1 17.97332 17.826243" style="fill:#f03916"/>
  <path d="m68.50173 51.174183a17.910444 17.910444 0 0 1-17.889422 17.910432 17.910444 17.910444 0 0 1-17.931417-17.868388 17.910444 17.910444 0 0 1 17.847329-17.952377 17.910444 17.910444 0 0 1 17.973313 17.826245" style="fill:#ffffff"/>
  <path d="m123.22812 51.174183a17.910444 17.910444 0 0 1-17.88943 17.910432 17.910444 17.910444 0 0 1-17.931412-17.868388 17.910444 17.910444 0 0 1 17.847332-17.952377 17.910444 17.910444 0 0 1 17.97331 17.826245" style="fill:#ffffff"/>
  <path d="m177.95445 51.174183a17.910444 17.910444 0 0 1-17.88942 17.910432 17.910444 17.910444 0 0 1-17.93142-17.868388 17.910444 17.910444 0 0 1 17.84733-17.952377 17.910444 17.910444 0 0 1 17.97331 17.826245" style="fill:#ffffff"/>
  <path d="m232.68083 51.174183a17.910444 17.910444 0 0 1-17.88942 17.910432 17.910444 17.910444 0 0 1-17.93142-17.868388 17.910444 17.910444 0 0 1 17.84733-17.952377 17.910444 17.910444 0 0 1 17.97331 17.826245" style="fill:#ffcc00"/>
 </g>
</svg>

<svg xmlns="http://www.w3.org/2000/svg" xmlns:xlink="http://www.w3.org/1999/xlink" style="clip-rule:evenodd;fill-rule:evenodd;image-rendering:optimizeQuality;shape-rendering:geometricPrecision;text-rendering:geometricPrecision" width="256" height="256" version="1.1" viewBox="0 0 256 256" xml:space="preserve">
 <defs>
  <style id="style2" type="text/css">
   <![CDATA[
    .fil5 {fill:none}
    .fil1 {fill:#196FBA}
    .fil0 {fill:#25B2EE}
    .fil4 {fill:#793C7C}
    .fil3 {fill:#8C508C}
    .fil2 {fill:white}
   ]]>
  </style>
  <filter style="color-interpolation-filters:sRGB" id="filter939" width="1.046" height="1.05" x="-.02" y="-.03">
   <feGaussianBlur id="feGaussianBlur941" stdDeviation="2.32"/>
  </filter>
  <filter style="color-interpolation-filters:sRGB" id="filter4569" width="1.023" height="1.025" x="-.01" y="-.01">
   <feGaussianBlur id="feGaussianBlur4571" stdDeviation="1.16"/>
  </filter>
  <linearGradient id="linearGradient1108" x1="296" x2="296" y1="-212" y2="236" gradientUnits="userSpaceOnUse" xlink:href="#linearGradient1013"/>
  <linearGradient id="linearGradient1013">
   <stop id="stop1005" offset="0" style="stop-color:#ffffff"/>
   <stop style="stop-color:#ffffff;stop-opacity:0.09803922" id="stop1007" offset=".125"/>
   <stop style="stop-color:#000000;stop-opacity:0.09803922" id="stop1009" offset=".925"/>
   <stop id="stop1011" offset="1" style="stop-color:#000000;stop-opacity:0.49803922"/>
  </linearGradient>
  <clipPath id="clipPath1082-3-361" clipPathUnits="userSpaceOnUse">
   <path d="M 361.9375,-212 C 507.2348,-212 528,-191.28677 528,-46.125 V 70.125 C 528,215.28618 507.2348,236 361.9375,236 H 214.0625 C 68.7652,236 48,215.28618 48,70.125 V -46.125 C 48,-191.28677 68.7652,-212 214.0625,-212 Z" style="fill:#8c59d9"/>
  </clipPath>
 </defs>
 <path style="opacity:0.2;filter:url(#filter939)" d="m 162.53675,5.5680001 c 72.64865,0 83.03125,10.3566149 83.03125,82.9375049 v 58.125005 c 0,72.58059 -10.3826,82.9375 -83.03125,82.9375 H 88.599254 C 15.9506,229.56801 5.568,219.2111 5.568,146.63051 V 88.505505 c 0,-72.58089 10.3826,-82.9375049 83.031254,-82.9375049 z" transform="matrix(1.019368,0,0,1.019368,-7.2181772e-8,8.3098661)"/>
 <path d="m 165.68477,11.946967 c 74.05571,0 84.6394,10.557203 84.6394,84.543835 v 59.250778 c 0,73.98633 -10.58369,84.54383 -84.6394,84.54383 H 90.315249 c -74.055717,0 -84.639408,-10.5575 -84.639408,-84.54383 V 96.490802 c 0,-73.986632 10.583691,-84.543835 84.639408,-84.543835 z" style="opacity:0.1;fill:none;stroke:#000000;stroke-width:4.07747173;stroke-linecap:round;stroke-linejoin:round"/>
 <path d="m 162.53675,3.5680001 c 72.64865,0 83.03125,10.3566149 83.03125,82.9375049 v 58.125005 c 0,72.58059 -10.3826,82.9375 -83.03125,82.9375 H 88.599254 C 15.9506,227.56801 5.568,217.2111 5.568,144.63051 V 86.505505 c 0,-72.58089 10.3826,-82.9375049 83.031254,-82.9375049 z" transform="matrix(1.019368,0,0,1.019368,-7.2181772e-8,8.3098661)" style="opacity:0.1;filter:url(#filter4569)"/>
 <path style="fill:#25b2ee" d="m 165.68476,11.946967 c 74.05571,0 84.6394,10.557203 84.6394,84.543835 v 59.250778 c 0,73.98633 -10.58369,84.54383 -84.6394,84.54383 H 90.315238 c -74.055712,0 -84.639403,-10.5575 -84.639403,-84.54383 V 96.490802 c 0,-73.986632 10.583691,-84.543835 84.639403,-84.543835 z"/>
 <path d="M 361.9375,-212 C 507.2348,-212 528,-191.28677 528,-46.125 V 70.125 C 528,215.28618 507.2348,236 361.9375,236 H 214.0625 C 68.7652,236 48,215.28618 48,70.125 V -46.125 C 48,-191.28677 68.7652,-212 214.0625,-212 Z" clip-path="url(#clipPath1082-3-361)" transform="matrix(0.50968403,0,0,0.50968403,-18.788999,120)" style="opacity:0.4;fill:none;stroke:url(#linearGradient1108);stroke-width:8;stroke-linecap:round;stroke-linejoin:round"/>
 <path style="opacity:0.1;fill:#ffffff" d="M 128,11.946967 V 240.28541 h 37.68476 c 74.05571,0 84.6394,-10.5575 84.6394,-84.54383 V 96.490802 c 0,-73.986632 -10.58369,-84.543835 -84.6394,-84.543835 z"/>
 <path style="opacity:0.1;fill:#ffffff" d="m 90.315238,240.28541 c -74.055712,0 -84.639403,-10.5572 -84.639403,-84.54383 V 126.11621 H 250.32416 v 29.62537 c 0,73.98663 -10.58369,84.54383 -84.6394,84.54383 z"/>
 <g transform="translate(-4.6808417,1.7521852)">
  <path style="fill:#ffcc00" d="M 68.501734,197.55386 A 17.910444,17.910444 0 0 1 50.612311,215.4643 17.910444,17.910444 0 0 1 32.680895,197.59591 17.910444,17.910444 0 0 1 50.528224,179.64353 17.910444,17.910444 0 0 1 68.501536,197.46978"/>
  <path style="fill:#f03916" d="M 123.2281,197.55386 A 17.910444,17.910444 0 0 1 105.33868,215.4643 17.910444,17.910444 0 0 1 87.407263,197.59591 17.910444,17.910444 0 0 1 105.25459,179.64353 17.910444,17.910444 0 0 1 123.2279,197.46978"/>
  <path style="fill:#f03916" d="m 177.95447,197.55386 a 17.910444,17.910444 0 0 1 -17.88943,17.91044 17.910444,17.910444 0 0 1 -17.93141,-17.86839 17.910444,17.910444 0 0 1 17.84733,-17.95238 17.910444,17.910444 0 0 1 17.97331,17.82625"/>
  <path style="fill:#ffcc00" d="m 232.68083,197.55386 a 17.910444,17.910444 0 0 1 -17.88942,17.91044 17.910444,17.910444 0 0 1 -17.93142,-17.86839 17.910444,17.910444 0 0 1 17.84733,-17.95238 17.910444,17.910444 0 0 1 17.97331,17.82625"/>
  <path style="fill:#f03916" d="M 68.50173,148.31706 A 17.910444,17.910444 0 0 1 50.612308,166.22749 17.910444,17.910444 0 0 1 32.680891,148.35911 17.910444,17.910444 0 0 1 50.52822,130.40673 17.910444,17.910444 0 0 1 68.501533,148.23297"/>
  <path style="fill:#ffcc00" d="m 123.22812,148.31706 a 17.910444,17.910444 0 0 1 -17.88943,17.91043 17.910444,17.910444 0 0 1 -17.931412,-17.86838 17.910444,17.910444 0 0 1 17.847332,-17.95238 17.910444,17.910444 0 0 1 17.97331,17.82624"/>
  <path style="fill:#f03916" d="m 177.95447,148.31706 a 17.910444,17.910444 0 0 1 -17.88943,17.91043 17.910444,17.910444 0 0 1 -17.93141,-17.86838 17.910444,17.910444 0 0 1 17.84733,-17.95238 17.910444,17.910444 0 0 1 17.97331,17.82624"/>
  <path style="fill:#ffcc00" d="m 232.68085,148.31706 a 17.910444,17.910444 0 0 1 -17.88943,17.91043 17.910444,17.910444 0 0 1 -17.93141,-17.86838 17.910444,17.910444 0 0 1 17.84733,-17.95238 17.910444,17.910444 0 0 1 17.97331,17.82624"/>
  <path style="fill:#ffffff" d="M 68.501734,100.41098 A 17.910444,17.910444 0 0 1 50.612311,118.32141 17.910444,17.910444 0 0 1 32.680895,100.45302 17.910444,17.910444 0 0 1 50.528224,82.500647 17.910444,17.910444 0 0 1 68.501536,100.32689"/>
  <path style="fill:#f03916" d="M 123.22812,100.41098 A 17.910444,17.910444 0 0 1 105.33869,118.32141 17.910444,17.910444 0 0 1 87.407278,100.45302 17.910444,17.910444 0 0 1 105.25461,82.500647 17.910444,17.910444 0 0 1 123.22792,100.32689"/>
  <path style="fill:#ffcc00" d="m 177.95445,100.41098 a 17.910444,17.910444 0 0 1 -17.88942,17.91043 17.910444,17.910444 0 0 1 -17.93142,-17.86839 17.910444,17.910444 0 0 1 17.84733,-17.952373 17.910444,17.910444 0 0 1 17.97331,17.826243"/>
  <path style="fill:#f03916" d="m 232.68081,100.41098 a 17.910444,17.910444 0 0 1 -17.88942,17.91043 17.910444,17.910444 0 0 1 -17.93141,-17.86839 17.910444,17.910444 0 0 1 17.84732,-17.952373 17.910444,17.910444 0 0 1 17.97332,17.826243"/>
  <path style="fill:#ffffff" d="M 68.50173,51.174183 A 17.910444,17.910444 0 0 1 50.612308,69.084615 17.910444,17.910444 0 0 1 32.680891,51.216227 17.910444,17.910444 0 0 1 50.52822,33.26385 17.910444,17.910444 0 0 1 68.501533,51.090095"/>
  <path style="fill:#ffffff" d="M 123.22812,51.174183 A 17.910444,17.910444 0 0 1 105.33869,69.084615 17.910444,17.910444 0 0 1 87.407278,51.216227 17.910444,17.910444 0 0 1 105.25461,33.26385 17.910444,17.910444 0 0 1 123.22792,51.090095"/>
  <path style="fill:#ffffff" d="M 177.95445,51.174183 A 17.910444,17.910444 0 0 1 160.06503,69.084615 17.910444,17.910444 0 0 1 142.13361,51.216227 17.910444,17.910444 0 0 1 159.98094,33.26385 17.910444,17.910444 0 0 1 177.95425,51.090095"/>
  <path style="fill:#ffcc00" d="M 232.68083,51.174183 A 17.910444,17.910444 0 0 1 214.79141,69.084615 17.910444,17.910444 0 0 1 196.85999,51.216227 17.910444,17.910444 0 0 1 214.70732,33.26385 17.910444,17.910444 0 0 1 232.68063,51.090095"/>
 </g>
</svg>
